X:33
T:Dream Quick Step
M:2/4
L:1/16
Q:1/4=90
K:G
%%MIDI channel 1
%%MIDI program 72
%%MIDI transpose 8
%%MIDI grace 1/8
%%MIDI ratio 3 1
|:d2|gfgd B2BA|GFGB D2DG|GDGB A2 Ac|BGBc d2ef|gfgd BcBA|
GFGB D2DG|GDGB ADFA|G2GF G2::D2|GDGB A2Ac|BGBc d2ef|ggfg agfe|
dd^cd e2f2|gfgd BcBA|GFGB D2DG|GDGB ADFA|G2GF G2:|
